X: 22697
T: Lament For Frankie
R: reel
M: 4/4
K: Fmajor
C3F G4|C3G B3G|A3F B4|G4||
C3F G4|C3G B3G|A2F2 B4|G4||
f3e cB3|B3A Bc3|G4 A3G|AB3 A3G|
AB3 A3G|G4 C3F|G4 C3G|B3G A3F|B4 G4||
C3F G4|C3G B3G|A2F2 B4|G4||
ef2e cB3|B3A Bc3|G4 EF3|ECB,2 F3E|C3B, F3E|C4||
C3F G4|C3G B3G|A3F B4|G4||
C3F G4|C3G B3G|A2F2 B4|G4||
ef2e cB3|B3A Bc3|G4 [F3A3][EG]|
[CA][B,3B3] [F3A3][EG]|[C2A2][B,2B2] [F3A3][EG]|[C4G4]||

